X:312
T:Winchester Wedding.
T:The King's Jigg.
C:John Malchair's Third Collection of Tunes
F:https://www.vwml.org/record/Malchair/3619/p31
F:www.vwml.org/topics/historic-dance-and-tune-books/Malchair
Z:Eric Conrad Jan 2020
N:NB1 No repeats in MS.  Assuming parts are repeated.
N:NB3 The MS has this as a quarter (closed notehead) with a correction to half (open nothead),
N:  -- the original quarter is consistent with barring.
N:NB4 MS has 1/8 note instead of 1/4 note.
N:NB5 This footnote follows the tune.
M:C|
L:1/8
K:Bb
P:A
|: "_NB1"B,2 | (DF3) G2F2 | D2B,2 (DF3) | B3G c3B, | (DF3) G3F | \
 D2F2 GAB2 | B3A "_NB3"B2 :|
P:B
|: g2 | fgd2 f3B | c2B2 cde2 | G3c A3F | B>GE2 G>BG2 | \
 c>AF2 (de3) | c3B "_NB4"B2 :|
W:(NB5) See an attempt to restore the time of this tune at p[age] 129.


